X:425
T:Cheshire Rounds. (p).1701.PLFD.425
M:3/2
L:1/8
Q:1/2=100
S:Playford, Dancing Master,11th Ed.,1701.
O:England
Z:Chris Partington.
K:D
f2(ef) gfed (fg)a2|b2e4d2c2A2|f2(ef) gfed (fg)a2|A2d4A2F2D2:|
|:B2(AB) (=cB)(AG)F4|E2e4d2c2A2|B2eB(=cB)(AG)F3E|D2d4A2F2D2:|
